X: 1
T: The Burnt Old Man
R: jig
S: Paul Lizotte's Joy of Sets collection
S: printed copy of unknown origin
Z: 2015 John Chambers <jc:trillian.mit.edu>
M: 6/8
L: 1/8
K: D
|:\
"D"DFB AFD | F2F "(A7)"F2E | "D"DFB AFD | "Em"E2E "A7"E3 |\
"D"DFB AFD | DFA d2e | "Bm"fed "G"Bcd | "A7"AFE E3 :|
|:\
"D"d2d def | ABA AFA | "Em"e2e ede | "D"fed "G"B2A |\
"D"d2d def | ABA d2e | "Bm"fed "G"Bcd | "A7"AFE E3 :|

%%sep 1 1 500

